X: 11059
T: LLOYD CARR'S REEL
C: Bob McQuillen 17 Sept 99
B: Bob's Note Book 11 #59
R: reel
Z: 2020 John Chambers <jc:trillian.mit.edu>
M: C
L: 1/8
K: D
AG \
| FDFA fdAF | GBed cBAG | FAdf gfed | cea^g a2AG |
| FDFA fdAF | GBed cBAG | FAdA GBdB | Acec d2 :|
|: cd \
| ecAg fdAa | gfed cBAd | cedf egfd | fagf e2ag |
| fdAF Adfa | gfed Bdeg | fdAf gece | eddc d2 :|
%%begintext align
%% The Monday Night Dance in
%% Nelson benefits greatly from the fact that Lloyd Carr doesn't mind
%% driving an hour and a half all the way from Candia just so
%% he can be there. Not only does he love to dance, but he also
%% likes to play the piano, especially when Harvey Tolman
%% plays Cape Breton tunes on his fiddle. It's such fun
%% to listen to them together. Good Stuff!
%%endtext

%%sep 1 1 500

%%sep 1 1 500

